X: 303
T: Lapovo Kolo
O: Serbia
S: Atanas Kolarovski AK-008
M: 2/4
L: 1/8
P: ABBCC
Q: 1/4=280
K: Bb
%%MIDI transpose 12
P:A
|:fgab   |bfed  | ded2  |dcB2 |
  fgf2   | fed2 |fed2   |dcB2 |
  fgab   |bfed  |ded2   |dcB2 |
  fgf2   |fed2  |fed2   |d2z2 :|
P:B
|:f2ed   |c2dc  |BGBd   |c2BA |
  G2FG   |ABcd  |[1 edfe|d2z2 :|[2BABA|G2z2|
P:C
|:F2B2   |AcBA  |F2d2   |cedc |
  [1 F2f2|=egf_e|dfed   |cedc :|
  BdcB   |AcBA  |G4     |G4   |



